X:1
T:Title
%%score 1 { ( 2 3 ) | ( 4 5 ) }
L:1/8
Q:1/4=92
M:9/8
K:F
V:1 treble nm="Gesang\nVoice"
V:2 treble nm="Piano"
V:3 treble 
V:4 bass 
V:5 bass 
V:1
"^Andante" z9 | z9 |"^Sehr langsam" c3- c2 F d2 B | (c2 A) F3 z3 | c3- c2 F d2 B | (c2 A) F3 z2 z | %6
!<(! d3- d2 d d2 d!<)! |!>(! d3- d2 B G2 z!>)! |!<(! d3- d2 d d2 d!<)! |!>(! d3- d2 B G2 z!>)! | %10
 G3 (2:3:2A B (2:3:2d B | g6 G3 | G3 (2:3:2A B (2:3:2d B | g6 G3 | G6 G3 | A6 z2 z | z9 | %17
 A3- A2 =B ^c2 d | e3- e2 A A3 | (d3 A2) G (2:3:2F E | A3- A2 D z2 z | B3- B2 c d2 e | %22
 f3- f2 B B3 | e3- e2 =B (2:3:2^G E | =B6- B2 z | (e3 d3) c2 =B | A3- A2 E z2 z | e3- e3- e2 d | %28
 ^c6 z2 z |!p! (d3 c3) =B2 d | G6 z2 z |"^a tempo" (F6 f3) | F3 z2 z F3 | (G6 _e3) | G6 z2 z | %35
 G3 B3 _d3 | _e6- e3 | _E6 z2 z | z9 |!pp! c3- c2 B A2 B | G3- G2 E C2 z | d3- d2 c B2 d | c6 C3 | %43
!<(! c6- c3!<)! | d6- d2 z | _e6 e3 | f6- f2 z | f6- f3 | ^f6- f3 | (g3 d3) =B3 | G6 F3 | E6- E3 | %52
 z9 |"^con forza" c3- c2 F d2 B | c3- c2 F z3 | c3- c2 F d2 B | c3- c2 F z3 | %57
!<(! d3- d2 d d2 d!<)! |!>(! d3- d2 B G2 z!>)! | d3- d2 d d2 d | d3- d2 B G2 z | %61
 G3 (2:3:2A B (2:3:2d B | g6 G3 | %63
V:2
!p! z (CD!<(! z CD FDE)!<)! | (EFc) (cAF) (FCA,) | z!<(! (CD!<)!!>(! z CD FDE)!>)! | %3
!>(! (EFc) (cAF) (FCA,)!>)! | z!<(! (CD!<)!!>(! z CD FDE)!>)! |!>(! (EFc) (cAF) (FCA,)!>)! | %6
 z!<(! (DE!<)!!>(! z D^F AED)!>)! |!<(! (DBd)!>(! (dBG) (GDB,)!>)! | %8
 z!<(! (DE!>)!!>(! z D^F AED)!<)! |!<(! (DBd)!>(! (dBG) (GDB,)!<)!!>)! | %10
!p!!<(! ([C_E]GB) ([CFA]cB) ([DFB]dB)!<)! | %11
!>(! ([B_d][_EG][Bd]) ([Bd][EG][Bd]) ([Bd][EG][Bd])!>)! | %12
!p!!<(! ([C_E]GB) ([CFA]cB) ([DFB]dB)!<)! | %13
!>(! ([B_d][_EG][Bd]) ([Bd][EG][Bd]) ([Bd][EG][Bd])!>)! | %14
!>(! ([Bd][EG][Bd]) ([Bd][EG][Bd]) ([Bd][EG][Bd])!>)! |!p! z!<(! (A,B,!>)!!>(! z A,C _ECD)!<)! | %16
 (^CDA) (A^FD) (DA,^F,) |!<(! z (A,=B,!>)!!>(! z A,^C ECD)!<)! |!>(! (D^CA) (AEC) (CA,E,)!>)! | %19
 z!<(! (F,A, z F,A, ^CA,C)!<)! |!>(! (^CDA) (AFD) (DA,F,)!>)! |!<(! z (B,C!>)!!>(! z B,D FDE)!<)! | %22
!>(! (EDB) (BFD) (DB,F,)!>)! | z (^G,!<(!=B, z G,B, DB,D)!<)! |!>(! (^DE=B) (BGE) (E=B,^G,)!>)! | %25
 z!<(! (^G,=B, z G,B, DB,D)!<)! |!>(! (^DE=B) (BGE) (E=B,^G,)!>)! | %27
 z!<(! ([EG][GB]) z ([GB][Bd]) z ([GB][Bd])!<)! | z!>(! ([GB][B^c]) z ([Bc][ce]) z ([Bc][ce])!>)! | %29
!p! z!<(! ([G=B][Bd]) z ([GB][Bd]) z ([DG]!<)![GB]) | %30
 z!>(! ([=B,F][DG]) z ([B,F][DG]) z ([F=B][Gd])!>)! |!p! ([Ff]2 [Cc]) ([Ff]2 [Dd]) ([Ff]2 [Dd]) | %32
 ([Ff]2 [Cc]) ([Ff]2 [Dd]) ([Ff]2 [Dd]) | ([_E_e]2 [Cc]) ([Ee]2 [Cc]) ([Ee]2 [Cc]) | %34
 ([_E_e]2 [Cc]) ([Ee]2 [Cc]) ([Ee]2 [Cc]) | ([_E_e]2 [B,B]) ([Ee]2 [B,B]) ([Ee]2 [B,B]) | %36
 ([_E_e]2 [B,B]) ([Ee]2 [B,B]) ([Ee]2 [B,B]) | %37
!p!!>(! ([_E_e]2 [B,B]) ([Ee]2 [B,B]) ([Ee]2 [B,B])!>)! | %38
!>(! ([Ee]2 [B,B]) ([Ee]2 [B,B]) ([Ee]2 [B,B])!>)! |!pp! z!<(! (FG) z (GB dBG)!<)! | %40
!>(! (Gce) (ecG) (GEC)!>)! |!<(! z (FG) z (GB dBG)!<)! |!>(! (Gce) (ecG) (GEC)!>)! | %43
!<(! (_EFc) (cFE) (EFc)!<)! |!<(! (DFB) (BFD) (DFB)!<)! |!<(! (_E_Ac) (cAE) (EAc)!<)! | %46
!<(! (_EFc) (cFE) (EFc)!<)! |!<(! (DFB) (BFD) (DFB)!<)! |!<(! (C^FA) (AFC) (CFA)!<)! | %49
!<(! (=B,DG) (GDB,) (B,DG)!<)! |!<(! (G,DF) (FDG,) (G,DF)!<)! | %51
!mf!!<(! z (^F,G,!>)!!>(! z F,G, =B,G,_B,)!<)! |!>(! (^A,=B,F) (FCA,) (A,F,^D,)!>)! | %53
 z!<(! (CD!>)!!>(! z CD FDE)!<)! |!>(! (EFc) (cAF) (FCA,)!>)! | z!<(! (CD!>)!!>(! z CD FDE)!<)! | %56
!>(! (EFc) (cAF) (FCA,)!>)! | z!<(! (DE!>)!!>(! z D^F AED)!<)! | %58
!<(! (DBd)!>(! (dBG) (GDB,)!<)!!>)! | z!<(! (DE!>)!!>(! z D^F AED)!<)! | %60
!<(! (DBd)!>(! (dBG) (GDB,)!<)!!>)! |!p!!<(! ([C_E]GB) ([CFA]cB) ([DFB]dB)!<)! | %62
!>(! ([B_d][_EG][Bd]) ([Bd][EG][Bd]) ([Bd][EG][Bd])!>)! | %63
V:3
 z A,2 z B,2 z B,2 | x A,2 z2 z [A,C]2 z | z A,2 z B,2 z B,2 | x A,2 z2 z [A,C]2 z | %4
 z A,2 z B,2 z B,2 | x A,2 z2 z [A,C]2 z | z A,2 z [CD]2 z C2 | x B,2 z2 z [B,D]2 z | %8
 z A,2 z [CD]2 z C2 | x B,2 z2 z [B,D]2 z | x9 | x9 | x9 | x9 | x9 | z ^F,2 z G,2 z G,2 | %16
 x ^F,2 z2 z [F,A,]2 z | z ^F,2 z F,2 z G,2 | x G,2 z2 z [G,^C]2 z | z F,2 z F,2 z G,2 | %20
 x F,2 z2 z F,2 z | z G,2 z A,2 z B,2 | x B,2 z2 z [B,D]2 z | z ^G,2 z G,2 z G,2 | %24
 x ^G,2 z2 z [G,=B,]2 z | z ^G,2 z G,2 z G,2 | x ^G,2 z2 z [G,=B,]2 z | x3 G3 G3 | G3 G3 G3 | %29
 G3 G3 D3 | G,3 G,3 G,3 | x9 | x9 | x9 | x9 | x9 | x9 | x9 | x9 | z D2 z [DF]2 z [DF]2 | %40
 x [CE]2 z2 z [CE]2 z | z D2 z [DF]2 z [DF]2 | x [CE]2 z2 z [CE]2 z | x _E2 x2 E x2 E | %44
 x D2 x2 D x2 D | x _E2 x2 E x2 E | x _E2 x2 E x2 E | x D2 x2 D x2 D | x C2 x2 C x2 C | %49
 x =B,2 x2 B, x2 B, | x G,2 x2 G, x2 G, | x ^D,2 z E,2 z E,2 | x F,2 z2 z [F,^A,]2 z | %53
 z A,2 z B,2 z B,2 | x A,2 z2 z [A,C]2 z | z A,2 z B,2 z B,2 | x A,2 z2 z [A,C]2 z | %57
 z A,2 z [CD]2 z C2 | x B,2 z2 z [B,D]2 z | z A,2 z [CD]2 z C2 | x B,2 z2 z [B,D]2 z | x9 | x9 | %63
V:4
 (F,,3 C,,3 C,3) | (F,,3 C,3 F,3) | (F,,3 C,,3 C,3) | (F,,3 C,3 F,3) | (F,,3 C,,3 C,3) | %5
 (F,,3 C,3 F,3) | (D,,3 ^F,,3 ^F,3) | (G,,3 D,3 G,3) | (D,,3 ^F,,3 ^F,3) | (G,,3 D,3 G,3) | %10
 [_E,G,]3 [E,F,]3 [D,F,]3 | [^C,,B,,]6- [C,,B,,]3 | [_E,G,]3 [E,F,]3 [D,F,]3 | %13
 [^C,,B,,]6- [C,,B,,]3 | [C,,B,,]6- [C,,B,,]3 | (D,,3 A,,,3 A,,3) | (D,,3 A,,3 D,3) | %17
 (D,,3 A,,,3 A,,3) | (A,,,3 A,,3 A,,,3) | (D,,3 D,3 E,3) | (F,3 D,3 A,,3) | (G,,3 D,,3 D,3) | %22
 (B,,,3 D,3 F,3) | (E,,3 E,3 =B,,3) | (E,,3 E,3 D,3) | (E,,3 E,3 =B,,3) | (E,,3 E,3 D,3) | %27
 ^C,,6- C,,3 | ^C,6- C,3 | D,6- D,3 | [D,,D,]6- [D,,D,]3 |!ped! (A,,,A,,C, F,A,[I:staff -1]C FAc) | %32
 x9 |!ped![I:staff +1] (B,,,B,,C, _E,G,[I:staff -1]B, C_EG)!ped-up! | x9 | %35
!ped![I:staff +1] (_E,,,_E,,G,, B,,_E,[I:staff -1]G, B,_EG)!ped-up! | x9 | %37
!ped![I:staff +1] (C,,,C,,_E,, G,,C,_E,[I:staff -1] G,C_E)!ped-up! | x9 | %39
[I:staff +1] (B,,,3 B,,3 D,3) | (C,,3 C,3 E,3) | (B,,,3 B,,3 D,3) | (C,,3 C,3 E,3) | %43
!ped! (A,,,A,,C, F,A,[I:staff -1]C[I:staff +1] A,,F,A,)!ped-up! | %44
!ped! (B,,,B,,D, F,[I:staff -1]B,D[I:staff +1] B,,F,B,)!ped-up! | %45
!ped! (_A,,,_A,,C, _E,[I:staff -1]_A,C[I:staff +1] A,,E,A,)!ped-up! | %46
!ped! (A,,,A,,C, F,A,[I:staff -1]C[I:staff +1] A,,F,A,)!ped-up! | %47
!ped! (B,,,B,,D, F,[I:staff -1]B,D[I:staff +1] B,,F,B,)!ped-up! | %48
!ped! (A,,,A,,C, _E,[I:staff -1]^F,A,[I:staff +1] A,,E,F,)!ped-up! | %49
!ped! (G,,,G,,=B,, D,[I:staff -1]G,=B,[I:staff +1] G,,D,G,)!ped-up! | %50
!ped! (G,,,G,,=B,, F,[I:staff -1]G,D[I:staff +1] G,,B,,F,)!ped-up! | (C,,3 G,,,3 G,,3) | %52
 (G,,,3 F,,3 C,3) | (F,,3 C,,3 C,3) | (F,,3 C,3 F,3) | (F,,3 C,,3 C,3) | (F,,3 C,3 F,3) | %57
 (D,,3 ^F,,3 ^F,3) | (G,,3 D,3 G,3) | (D,,3 ^F,,3 ^F,3) | (G,,3 D,3 G,3) | %61
 [_E,G,]3 [E,F,]3 [D,F,]3 | [^C,,B,,]6- [C,,B,,]3 | %63
V:5
 F,,,3 F,,,3 C,,3 | F,,,3 F,,3 x3 | F,,,3 F,,,3 C,,3 | F,,,3 F,,3 x3 | F,,,3 F,,,3 C,,3 | %5
 F,,,3 F,,3 x3 | D,,,3 ^F,,3 ^F,3 | G,,,3 G,,3 x3 | D,,,3 ^F,,3 ^F,3 | G,,,3 G,,3 x3 | x9 | x9 | %12
 x9 | x9 | x9 | D,,,3 D,,,3 A,,,3 | D,,,3 D,,3 x3 | D,,,3 D,,,3 A,,,3 | A,,,,3 A,,,3 A,,,,3 | %19
 D,,,3 D,,3 E,,3 | F,,3 D,,3 A,,,3 | G,,,3 D,,,3 D,,3 | B,,,,3 B,,,3 D,,3 | E,,,3 E,,3 =B,,,3 | %24
 E,,,3 E,,3 D,,3 | E,,,3 E,,3 =B,,,3 | E,,,3 E,,3 D,,3 | x9 | x9 | x9 | x9 | %31
 [A,,,,A,,,]6- [A,,,,A,,,]3 | x9 | B,,,,6- B,,,,3 | x9 | _E,,,6- E,,,3 | x9 | C,,,6- C,,,3 | x9 | %39
 B,,,,3 B,,,3 D,,3 | C,,,3 C,,3 E,,3 | B,,,,3 B,,,3 D,,3 | C,,,3 C,,3 E,,3 | x9 | x9 | x9 | x9 | %47
 x9 | x9 | x9 | x9 | C,,,3 C,,,3 G,,,3 | G,,,,3 F,,,3 x3 | F,,,3 F,,,3 C,,3 | F,,,3 F,,3 x3 | %55
 F,,,3 F,,,3 C,,3 | F,,,3 F,,3 x3 | D,,,3 ^F,,3 ^F,3 | G,,,3 G,,3 x3 | D,,,3 ^F,,3 ^F,3 | %60
 G,,,3 G,,3 x3 | x9 | x9 | %63

